X:1
T:Wakefield, 76.77.6
T:Wakefield, 76.77.6
T:William Wallace Gilchrist, 1895
T:Public Domain Courtesy of the Cyber Hymnal™
C:William Wallace Gilchrist, 1895
Z:Public Domain
Z:Courtesy of the Cyber Hymnal™
%%score ( 1 2 ) ( 3 4 )
L:1/8
Q:1/4=115
M:4/4
K:Ab
V:1 treble 
V:2 treble 
V:3 bass 
V:4 bass 
V:1
 [Cc]2 | [Dc]3 [DB] [DF]2 [DB]2 | [CA]4 [CE]2 [FA]2 | [=EA]3 [CG] C2 [CG]2 | F6 [CE]2 | %5
 =D2 [Dc]2 [EB]2 [FA]2 | ([B,G]2 [Fd]2) [Ec]2 [EB]2 | [EA]2 [Ee]2 [Ed]2 [Fc]2 | F2 c2 [FB]2 [CF]2 | %9
 [CE]4 [Ec]4 | B6 z2 A2 | [CA]6 |] %12
V:2
 x2 | x8 | x8 | x4 C2 x2 | F6 x2 | =D2 x6 | x8 | x8 | F4 x4 | x8 | D4 E4 x2 | x6 |] %12
V:3
 [A,,E,]2 | [A,,F,]3 [A,,F,] [A,,F,]2 [A,,G,]2 | [A,,A,]4 A,2 [F,C]2 | %3
 [C,C]3 [C,B,] [C,A,]2 [C,B,]2 | [D,A,]6 [E,A,]2 | [F,A,]2 [B,,A,]2 [C,G,]2 [=D,F,]2 | %6
 (E,2 G,2) [F,A,]2 [G,B,]2 | [A,C]2 [C,A,]2 [F,=A,]2 [E,A,]2 | [D,B,]4 [D,F,]2 [=D,A,]2 | %9
 [E,A,]4 E,4 | [E,F,]4 [E,G,]4 x2 | [A,,A,]6 |] %12
V:4
 x2 | x8 | x4 A,2 x2 | x8 | x8 | x8 | E,4 x4 | x8 | x8 | x4 E,4 | x10 | x6 |] %12

